X: 1941
T: Arrane Y Chlean
R: waltz
M: 3/4
K: Dmajor
DE|:F2 F2 D2|G4 A2|F2 F2 D2|E2 D2 DE|
F2 F2 D2|E2 F2 G2|E2 D2 D2|1 D4 DE:|2 D4 AB||
=c4 BA|B4 AG|A2 A2 G2|F2 D2 AB|
=c4 BA|B4 AG|A2 d2 c2|d4 AB|
=c4 BA|B2 d2 B2|A2 A2 G2|F2 D2 DE|
F2 F2 D2|E2 F2 G2|E2 D2 D2|D4||

